modules/framework7-icons/icons/money_dollar.svg

<?xml version="1.0" encoding="UTF-8"?>
<svg width="50px" height="50px" viewBox="0 0 50 50" version="1.1" xmlns="http://www.w3.org/2000/svg" xmlns:xlink="http://www.w3.org/1999/xlink">
    <!-- Generator: Sketch 40.1 (33804) - http://www.bohemiancoding.com/sketch -->
    <title>money_dollar</title>
    <desc>Created with Sketch.</desc>
    <defs></defs>
    <g id="Page-1" stroke="none" stroke-width="1" fill="none" fill-rule="evenodd">
        <g id="money_dollar" fill="#000000">
            <path d="M48,25 C48,12.2974508 37.7025492,2 25,2 C12.2974508,2 2,12.2974508 2,25 C2,37.7025492 12.2974508,48 25,48 C37.7025492,48 48,37.7025492 48,25 Z M0,25 C0,11.1928813 11.1928813,0 25,0 C38.8071187,0 50,11.1928813 50,25 C50,38.8071187 38.8071187,50 25,50 C11.1928813,50 0,38.8071187 0,25 Z" id="Oval-43"></path>
            <path d="M25.6367188,40.6367188 L25.6367188,38.140625 C30.5410156,37.8066406 33.6523438,35.0996094 33.6523438,31.0566406 C33.6523438,27.4707031 31.5605469,25.4492188 26.65625,24.21875 L25.6367188,23.9550781 L25.6367188,14.3925781 C28.625,14.65625 30.8222656,16.5898438 30.9101562,19.015625 L33.1953125,19.015625 C33.0722656,15.359375 29.9960938,12.6171875 25.6367188,12.3007812 L25.6367188,9.89257812 L23.8085938,9.89257812 L23.8085938,12.3183594 C19.2910156,12.6523438 16.3203125,15.3242188 16.3203125,19.1035156 C16.3203125,22.4082031 18.4121094,24.5 22.8417969,25.625 L23.8085938,25.8886719 L23.8085938,36.0664062 C20.4863281,35.7675781 18.1835938,33.8164062 17.9902344,31.1269531 L15.7050781,31.1269531 C15.7578125,35.046875 19.0625,37.859375 23.8085938,38.1582031 L23.8085938,40.6367188 L25.6367188,40.6367188 Z M31.3320312,31.2324219 C31.3320312,34.0273438 29.0820312,35.9433594 25.6367188,36.1015625 L25.6367188,26.2578125 C29.6972656,27.171875 31.3320312,28.6132812 31.3320312,31.2324219 L31.3320312,31.2324219 Z M18.6230469,18.9804688 C18.6230469,16.4492188 20.8203125,14.5332031 23.8085938,14.3925781 L23.8085938,23.5507812 C20.2226562,22.7597656 18.6230469,21.3359375 18.6230469,18.9804688 L18.6230469,18.9804688 Z" id="$"></path>
        </g>
    </g>
</svg>

<svg width="50" height="50" xmlns="http://www.w3.org/2000/svg"><g fill-rule="evenodd"><path d="M48 25C48 12.297 37.703 2 25 2S2 12.297 2 25s10.297 23 23 23 23-10.297 23-23zM0 25C0 11.193 11.193 0 25 0s25 11.193 25 25-11.193 25-25 25S0 38.807 0 25z"/><path d="M25.637 40.637V38.14c4.904-.334 8.015-3.041 8.015-7.084 0-3.586-2.091-5.608-6.996-6.838l-1.02-.264v-9.562c2.989.263 5.186 2.197 5.274 4.623h2.285c-.123-3.657-3.199-6.399-7.558-6.715V9.893h-1.828v2.425c-4.518.334-7.489 3.006-7.489 6.786 0 3.304 2.092 5.396 6.522 6.521l.967.264v10.177c-3.323-.298-5.625-2.25-5.819-4.939h-2.285c.053 3.92 3.357 6.732 8.104 7.031v2.479h1.828zm5.695-9.405c0 2.795-2.25 4.711-5.695 4.87v-9.844c4.06.914 5.695 2.355 5.695 4.974zM18.623 18.98c0-2.53 2.197-4.447 5.186-4.587v9.158c-3.586-.791-5.186-2.215-5.186-4.57z"/></g></svg>
